X: 1
T: The Star of the County Down jig [Am]
O: Trad. Ireland, Scotland)
R: jig
Z: 2017 John Chambers <jc:trillian.mit.edu>
M: 6/8
L: 1/8
K: Am
EG "A"|\
"Am"A2A AGA | "C"c2c "G"dcd | "Am"edc A>GE | "G"G3 zcB |\
"Am"A2A AGA | "C"c2c "G"dcd | "Am"edc "Em"A2G | "Am"A3 z |]
ef "B1"|\
"C"g2e edc | "G"d2d dcd | "Am"edc A2A | "Em"G3 zcB |\
"Am"A2A AGA | "C"c2c "G"dcd | "Am"edc "Em"A2G | "Am"A3 z |]
ef "B2"|\
"C"gag gec | "G"dcd "C"ecd | "Am"edc AGE | "Em"G3 zEG |\
"Am"AcA "(F)"AGA | "C"cBc "G"dcd | "Am"edc "Em"A2G | "Am"A3 z |]

%%vskip 3pt


